!!!COM: Music21
!!!OTL: reel_Dram-Shell--The
!!!OMV: reel_Dram-Shell--The
**kern
*clefG2
*k[f#c#g#]
*A:
*M4/4
=1
8c#
=
4.f#
8aa
8ff#L
8eeJ
8cc#L
8aJ
=
8cc#L
8eeJ
8dd#XL
8cc#J
8bL
8aJ
8g#L
8eJ
=
4.f#
8aa
8ff#L
8eeJ
8cc#L
8ff#J
=
8ee
8cc#L
8bJ
8g#
8a
8f#L
8f#J
8ryy
=||
*M4/4
8c#
!!linebreak:original
=
4.f#
8aa
8ff#L
8eeJ
8cc#L
8aJ
=
8cc#L
8eeJ
8dd#XL
8cc#J
8bL
8aJ
8g#L
8eJ
=
4.f#
8aa
8ff#L
8eeJ
8cc#L
8ff#J
=
8ee
8cc#L
8bJ
8g#
8a
8f#L
8f#J
8ryy
=||
8gg#
2..ryy
!!linebreak:original
=
8aaL
8ff#J
8cc#L
8ff#J
8cc#L
8ff#J
8aaL
8ff#J
=
8gg#L
8eeJ
8bbL
8eeJ
8gg#L
8bbJ
8eeL
8gg#J
=
8aaL
8ff#J
8cc#L
8ff#J
8cc#L
8ff#J
8aaL
8ff#J
=
8eeL
8cc#J
8bL
8g#J
8aL
8f#J
8f#L
8gg#J
=
8aaL
8ff#J
8cc#L
8ff#J
8cc#L
8ff#J
8aaL
8ff#J
!!linebreak:original
=
8gg#L
8eeJ
8bbL
8eeJ
8gg#L
8bbJ
8eeL
8gg#J
=
8aaL
8gg#J
8ff#L
8gg#J
8eeL
8ff#J
8cc#L
8ff#J
=
8ee
8cc#L
8bJ
8g#
8a
8f#L
8f#J
8ryy
=||
*-
